X:1
T:Title
%%score { ( 1 3 ) | ( 2 4 ) }
L:1/8
M:6/4
K:Db
V:1 treble nm="Grand Piano"
V:3 treble 
V:2 bass 
V:4 bass 
V:1
 z6 z4[Q:1/4=105] DE | F2 _F2 =F2 D4 F[EG] | [FA]2 [_F=G]2 [=FA]2 [Fd]4 [Fd][Fd] | %3
 [Ec]2 [CE]2 [DF]2 [EG]4 [DF][EG] | [GB]2 [FA]2 [EG]2 F4 DE |[M:5/4] F2 _F2 =F2 D4 |[M:1/4] F[EG] | %7
[M:6/4] [FA]2 [_F=G]2 [=FA]2 [Fd]4 [Fd][_Fd] | c2 A2 c2 B2 F2 =G2 |[M:5/4] [CA]2- [CA]2- [CA]6 | %10
[M:1/4] [CA][GA] |[M:6/4] [Fd]2 [Fc]2 [FB]2 [Gc]4 AA | e2 d2 c2 [Fd]4 [FA][FA] | %13
 [GB]2 [GB]2 [AB]2 [GB]4 [=GB][GB] | [=Ge]2 [Ge]2 [Gd]2 c4 AA |[M:5/4] [Fd]2 [Fc]2 [FB]2 [Gc]4 | %16
[M:1/4] AA |[M:6/4] e2 d2 c2 [Fd]4 [FA][FA] |[M:13/8] [GB]2 [Gc]2 [Gd]2 [Ge]3 [GB]2 [Gc]2 | %19
[M:5/4] d2- d2- d6 |] %20
V:2
 z6 z4 [D,F,][D,G,C] | [D,A,D]2 [D,=G,D]2 [D,A,D]2 [D,F,]4 [D,A,D][D,A,] | %2
 [D,D]2 [D,D]2 [D,D]2 [D,A,]4 [D,A,][D,A,] | [A,,A,]2 [A,,A,]2 [A,,A,]2 [A,,A,]4 [A,,A,][A,,A,] | %4
 [A,,A,]2 [B,,A,]2 [C,A,]2 [D,A,D]4 [D,F,][D,G,C] |[M:5/4] [D,A,D]2 [D,=G,D]2 [D,A,D]2 [D,F,]4 | %6
[M:1/4] [D,A,D][D,A,] |[M:6/4] [D,D]2 [D,D]2 [D,D]2 [D,A,]4 [D,A,][D,A,] | %8
 [E,A,E]2 [E,CE]2 [E,A,E]2 [E,=G,D]2 [E,A,D]2 [E,B,D]2 |[M:5/4] [A,,A,]2- [A,,A,]2- [A,,A,]6 | %10
[M:1/4] [A,,A,][A,,A,] |[M:6/4] [D,A,]2 [D,A,]2 [D,A,]2 [E,A,]4[K:treble] [A,CG][A,CG] | %12
 [A,CG]2 [A,B,G]2 [A,G]2[K:bass] [D,A,]4 [D,D][D,D] | [G,D]2 [G,D]2 [F,=D]2 [E,E]4 [E,E][E,_D] | %14
 [E,B,]2 [E,B,]2 [E,E]2[K:treble] [A,EG]4 [A,CG][A,CG] | %15
[M:5/4][K:bass] [D,A,]2 [D,A,]2 [D,A,]2 [E,A,]4 |[M:1/4][K:treble] [A,CG][A,CG] | %17
[M:6/4] [A,CG]2 [A,B,G]2 [A,G]2[K:bass] [D,A,]4 [D,D][D,D] | %18
[M:13/8] [G,D]2 [E,A,]2 [D,A,]2 [C,A,]3 [A,,A,]2 [A,,A,]2 |[M:5/4] A,2 A,2 B,2 A,4 |] %20
V:3
 x12 | x12 | x12 | x12 | x12 |[M:5/4] x10 |[M:1/4] x2 |[M:6/4] x12 | x12 |[M:5/4] x10 |[M:1/4] x2 | %11
[M:6/4] x12 | x12 | x12 | x12 |[M:5/4] x10 |[M:1/4] x2 |[M:6/4] x12 |[M:13/8] x13 | %19
[M:5/4] F2 F2 G2 F4 |] %20
V:4
 x12 | x12 | x12 | x12 | x12 |[M:5/4] x10 |[M:1/4] x2 |[M:6/4] x12 | x12 |[M:5/4] x10 |[M:1/4] x2 | %11
[M:6/4] x10[K:treble] x2 | x6[K:bass] x6 | x12 | x6[K:treble] x6 |[M:5/4][K:bass] x10 | %16
[M:1/4][K:treble] x2 |[M:6/4] x6[K:bass] x6 |[M:13/8] x13 |[M:5/4] D,2- D,2- D,6 |] %20

